console-client/ionicons/svg/images-sharp.svg

<svg xmlns="http://www.w3.org/2000/svg" class="ionicon" viewBox="0 0 512 512"><title>Images</title><ellipse cx="373.14" cy="219.33" rx="46.29" ry="46" class="ionicon-fill-none"/><path d="M80 132v328a20 20 0 0020 20h392a20 20 0 0020-20V132a20 20 0 00-20-20H100a20 20 0 00-20 20zm293.14 41.33a46 46 0 11-46.28 46 46.19 46.19 0 0146.28-46zm-261.41 276v-95.48l122.76-110.2L328.27 337l-113 112.33zm368.27 0H259l144.58-144L480 370.59z"/><path d="M20 32A20 20 0 000 52v344a20 20 0 0020 20h28V100a20 20 0 0120-20h380V52a20 20 0 00-20-20z"/></svg>

<svg xmlns="http://www.w3.org/2000/svg" width="512" height="512" viewBox="0 0 512 512"><title>ionicons-v5-e</title><ellipse cx="373.14" cy="219.33" rx="46.29" ry="46" style="fill:none"/><path d="M80,132V460a20,20,0,0,0,20,20H492a20,20,0,0,0,20-20V132a20,20,0,0,0-20-20H100A20,20,0,0,0,80,132Zm293.14,41.33a46,46,0,1,1-46.28,46A46.19,46.19,0,0,1,373.14,173.33Zm-261.41,276V353.85l122.76-110.2L328.27,337l-113,112.33Zm368.27,0H259l144.58-144L480,370.59Z"/><path d="M20,32A20,20,0,0,0,0,52V396a20,20,0,0,0,20,20H48V100A20,20,0,0,1,68,80H448V52a20,20,0,0,0-20-20Z"/></svg>
